packages/icon/src/svg/user-add.icon.svg

<svg width="24" height="24" viewBox="0 0 24 24" fill="none" xmlns="http://www.w3.org/2000/svg">
<path fill-rule="evenodd" clip-rule="evenodd" d="M15 12C17.2061 12 19 10.206 19 8C19 5.79401 17.2061 4 15 4C12.7939 4 11 5.79401 11 8C11 10.206 12.7939 12 15 12ZM15 6C16.103 6 17 6.896 17 8C17 9.10303 16.103 10 15 10C13.897 10 13 9.10303 13 8C13 6.896 13.897 6 15 6ZM23 19.5C23 19.7761 22.7761 20 22.5 20H7.5C7.22388 20 7 19.7761 7 19.5V19C7 15.467 10.29 13 15 13C19.71 13 23 15.467 23 19V19.5ZM20.8409 18H9.15796C9.75598 16.192 11.991 15 14.9989 15C18.007 15 20.2429 16.192 20.8409 18ZM4 10H1.5C1.22388 10 1 10.2239 1 10.5V11.5C1 11.7761 1.22388 12 1.5 12H4V14.5C4 14.7761 4.22388 15 4.5 15H5.5C5.77612 15 6 14.7761 6 14.5V12H8.5C8.77612 12 9 11.7761 9 11.5V10.5C9 10.2239 8.77612 10 8.5 10H6V7.5C6 7.22388 5.77612 7 5.5 7H4.5C4.22388 7 4 7.22388 4 7.5V10Z" fill="white"/>
</svg>

<svg aria-label="user add icon" viewBox="0 0 24 24"><path fill-rule="evenodd" clip-rule="evenodd" d="M15 12c2.206 0 4-1.794 4-4s-1.794-4-4-4-4 1.794-4 4 1.794 4 4 4zm0-6c1.103 0 2 .896 2 2 0 1.103-.897 2-2 2s-2-.897-2-2c0-1.104.897-2 2-2zm8 13.5a.5.5 0 01-.5.5h-15a.5.5 0 01-.5-.5V19c0-3.533 3.29-6 8-6s8 2.467 8 6v.5zM20.84 18H9.159c.598-1.808 2.833-3 5.84-3 3.009 0 5.245 1.192 5.843 3zM4 10H1.5a.5.5 0 00-.5.5v1a.5.5 0 00.5.5H4v2.5a.5.5 0 00.5.5h1a.5.5 0 00.5-.5V12h2.5a.5.5 0 00.5-.5v-1a.5.5 0 00-.5-.5H6V7.5a.5.5 0 00-.5-.5h-1a.5.5 0 00-.5.5V10z"/></svg>
